remix/Media/music-fill.svg

<svg viewBox="0 0 24 24" fill="currentColor" xmlns="http://www.w3.org/2000/svg"><path d="M12 13.5351V3H20V6H14V17C14 19.2091 12.2091 21 10 21C7.79086 21 6 19.2091 6 17C6 14.7909 7.79086 13 10 13C10.7286 13 11.4117 13.1948 12 13.5351Z"/></svg>

<svg viewBox="0 0 24 24" xmlns="http://www.w3.org/2000/svg"><path fill="none" d="M0 0h24v24H0Z"/><path d="M12 13.535V3h8v3h-6v11 0c-.01 2.2-1.8 3.99-4.01 3.99 -2.21-.01-4-1.8-4-4.01s1.79-4 4-4c.7 0 1.39.18 1.99.53Z"/></svg>
